X:81
T: Zerbrochenes Muehlenrad
N: Z0081
O: Europa, Mitteleuropa, Deutschland
R: Sagen - Lied, Romanze, Tod
M: 4/4
L: 1/4
K: G
D | GGGG | AAA
G | FEFD | G2G
D | GGGG | AAA
G | FEFD | G2G
G | BBBB | c2c
B | AAAA | d3
G | dddd | e2e
d | cBcd | B3

@@@ Tune index: 9839
